!!! OTL: Berkowitz81
!!! Chapter: 1
!!! Section: I
!!! Page: 21
!!! Mode: 
!!! Encoder: DJB
**kern
*staff1
*I"Piano
=1-
*clefC3
*k[b-e-]
*B-:
*M6/8
4.B-/
4.d\
=2
8f\L
8e-\
8d\J
4.c\
=3
8d\L
8e-\
8f\J
8g\L
8f\
8e-\J
=4
4.d\
4.c\
=5
4.B-/
4.d\
=6
4.f\
4.b-\
=7
8a\L
8g\
8f\J
8e-\L
8d\
8c\J
=8
4.B-/
8r
4r
==
*-
